make "a 100
for a > 0 [
fd 100
bk 100
a = a - 1
]
a = 100
for a > 0 [
fd 100
bk 100
a = a - 1
]
a = 100
for a > 0 [
fd 100
bk 100
a = a - 1
]
a =100
for a > 0 [
fd 100
bk 100
a = a - 1
]
a = 100
for a > 0 [
fd 100
bk 100
a = a - 1
]