to main
movementBenchmark
end

to movementBenchmark
    fd 100
    rt 45
    fd 100
    rt 45
    fd 100
    rt 45
    fd 100
    rt 45
    fd 100
    rt 45
    fd 100
    rt 45
    fd 100
    rt 45
    fd 100
    rt 45
end