to main
movementBenchmark
end

to movementBenchmark
  repeat 10000 [
    fd 100
    rt 90
    bk 100
    lt 90
    fd 100
    rt 90
    bk 100
    lt 90
    fd 100
    rt 90
    bk 100
    lt 90
    fd 100
    rt 90
    bk 100
    lt 90
  ]
end