to main
repeat 15000 [
penManipulationBenchmark
]
end

to penManipulationBenchmark
  setpc blue
  fd 100
  setpc red
  bk 100
  setpc blue
  fd 100
  setpc red
  bk 100
  setpc blue
  fd 100
  setpc red
  bk 100
  setpc blue
  fd 100
  setpc red
  bk 100
end