to main
rec1 100 0
end

to rec1 :n :i
  if :n > 3 [
    if :i%2 = 0 [
        repeat 5 [setpc pink fd :n rec1 :n/2 :i+1 rt 72]
        ] [
       repeat 5 [setpc blue fd :n rec1 :n/2 :i+1 lt 72]
      ]
  ]
end