to rec1 :n :i
ht setpw 3
  if :n > 3 [
    if :i%2 = 0 [
        repeat 5 [setpc pink fd :n rec1 :n/2 :i+1 rt 72]
        ] [
       repeat 5 [setpc blue fd :n rec1 :n/2 :i+1 lt 72]
      ]
  ]
end

rec1 100 0